X:525
T:Lough Derg
T:Father Kelly's
R:jig
C:Father P.J. Kelly (1925-2006)
Z:id:hn-jig-525
M:6/8
L:1/8
K:G
~G3 BAG | ~F3 AFD | GFG BAG | B/c/dB cBA |
~G3 BAG | ~F3 AFD | dB/c/d fed |1 cAF G2D :|2 cAF G2A ||
|: B2d gdB | dgB dgd | c2e gec | egc ege |
d2f afd | fad faf |1 ~g3 efg | afd cBA :|2 dB/c/d fed | cAF G2A ||
|: ~B3 BAG | ~F3 AFD | ~B3 BAG | BdB cBA |
~B3 BAG | ~F3 AFD | d^cd fed |1 cAF G2A :|2 cAF G2D ||

